packages/icons/src/assets/all-caps.svg

<svg width="16" height="16" viewBox="0 0 16 16" fill="currentColor" xmlns="http://www.w3.org/2000/svg">
<path d="M12.1523 2.40002C12.8339 2.40002 13.4141 2.52863 13.8926 2.78479C14.371 3.04089 14.7409 3.41005 15.002 3.89319C15.2678 4.37648 15.4183 4.95685 15.4521 5.63342H14.1182C14.0843 5.19853 13.9916 4.82649 13.8418 4.51721C13.692 4.20309 13.4796 3.96376 13.2041 3.79944C12.9286 3.63026 12.5777 3.54553 12.1523 3.54553C11.7465 3.54558 11.4033 3.61336 11.123 3.74866C10.8428 3.884 10.6134 4.08739 10.4346 4.35803C10.2606 4.62869 10.132 4.96971 10.0498 5.38049C9.97253 5.79124 9.93457 6.27006 9.93457 6.81604V8.8092C9.93457 9.36984 9.98944 9.85839 10.1006 10.274C10.2117 10.6896 10.3693 11.0327 10.5723 11.3033C10.7801 11.574 11.0293 11.7774 11.3193 11.9127C11.6093 12.0431 11.9354 12.109 12.2979 12.109C12.7087 12.109 13.0327 12.0652 13.2695 11.9781C13.5063 11.8912 13.6878 11.7915 13.8135 11.6803C13.9438 11.5693 14.0477 11.4803 14.125 11.4127V8.9762H12.1895V7.84534H15.4521V11.7819C15.3362 11.9365 15.1595 12.1301 14.9229 12.3619C14.6908 12.594 14.3639 12.7993 13.9434 12.9781C13.5229 13.1569 12.9723 13.2467 12.291 13.2467C11.7449 13.2467 11.2443 13.1549 10.79 12.9713C10.3405 12.7876 9.95075 12.5125 9.62207 12.1451C9.29828 11.773 9.047 11.3113 8.86816 10.7604C8.68932 10.2045 8.59961 9.5536 8.59961 8.8092V6.82971C8.59964 6.09043 8.67542 5.44305 8.8252 4.88733C8.97503 4.3315 9.19737 3.86991 9.49219 3.50256C9.79188 3.1352 10.1617 2.8591 10.6016 2.67542C11.0461 2.49189 11.563 2.40007 12.1523 2.40002Z" fill="currentColor"/>
<path fill-rule="evenodd" clip-rule="evenodd" d="M5.0459 2.54553L8.44629 13.1022H7.08398L6.25586 10.3395H2.69141L1.86328 13.1022H0.5L3.90039 2.54553H5.0459ZM3.03516 9.19397H5.91211L4.47363 4.39807L3.03516 9.19397Z" fill="currentColor"/>
</svg>

<svg xmlns="http://www.w3.org/2000/svg" width="16" height="16" viewBox="0 0 16 16"><path d="M12.152 2.4q1.023 0 1.74.385.718.384 1.11 1.108.399.725.45 1.74h-1.334a3.1 3.1 0 0 0-.276-1.116 1.6 1.6 0 0 0-.638-.718q-.413-.253-1.052-.253-.608 0-1.029.203t-.688.609q-.261.406-.385 1.022-.115.617-.115 1.436v1.993q-.001.841.166 1.465.166.624.471 1.03.312.405.747.609.435.196.979.196.616 0 .972-.13.355-.131.543-.299l.312-.267V8.976H12.19v-1.13h3.262v3.936a5.5 5.5 0 0 1-.53.58q-.347.348-.979.616-.63.269-1.652.269a4 4 0 0 1-1.501-.276 3.15 3.15 0 0 1-1.168-.826q-.486-.558-.754-1.385Q8.6 9.926 8.6 8.81V6.83q0-1.11.225-1.943t.667-1.384q.45-.552 1.11-.828.666-.275 1.55-.275"/><path fill-rule="evenodd" d="m5.046 2.546 3.4 10.556H7.084l-.828-2.763H2.69l-.828 2.763H.5L3.9 2.546zm-2.01 6.648h2.876L4.474 4.398z"/></svg>
